symbolic/status/view-private-symbolic.svg

<svg xmlns="http://www.w3.org/2000/svg" width="16" height="16"><path d="M4 8c-1.66 0-3 1.34-3 3s1.34 3 3 3c1.56 0 2.82-1.2 2.97-2.72.3-.18.66-.28 1.03-.28s.73.1 1.03.28C9.18 12.8 10.44 14 12 14c1.66 0 3-1.34 3-3s-1.34-3-3-3c-1.39 0-2.54.97-2.87 2.25C8.77 10.11 8.4 10 8 10c-.4 0-.77.11-1.12.25C6.54 8.97 5.39 8 4 8zm0 1.25c.97 0 1.75.78 1.75 1.75S4.97 12.75 4 12.75 2.25 11.97 2.25 11 3.03 9.25 4 9.25zm8 0c.97 0 1.75.78 1.75 1.75s-.78 1.75-1.75 1.75-1.75-.78-1.75-1.75.78-1.75 1.75-1.75zM4 1l-.75 3h9.5L12 1l-4 .5zM3 5L0 7h16l-3-2z" fill="#f8f8f2"/></svg>

<svg xmlns="http://www.w3.org/2000/svg" width="16" height="16" version="1.1">
 <path style="fill:#dfdfdf" d="M 4,8 C 2.34,8 1,9.34 1,11 1,12.66 2.34,14 4,14 5.56,14 6.82,12.8 6.97,11.28 7.27,11.1 7.63,11 8,11 8.37,11 8.73,11.1 9.03,11.28 9.18,12.8 10.44,14 12,14 13.66,14 15,12.66 15,11 15,9.34 13.66,8 12,8 10.61,8 9.46,8.97 9.13,10.25 8.77,10.11 8.4,10 8,10 7.6,10 7.23,10.11 6.88,10.25 6.54,8.97 5.39,8 4,8 Z M 4,9.25 C 4.97,9.25 5.75,10.03 5.75,11 5.75,11.97 4.97,12.75 4,12.75 3.03,12.75 2.25,11.97 2.25,11 2.25,10.03 3.03,9.25 4,9.25 Z M 12,9.25 C 12.97,9.25 13.75,10.03 13.75,11 13.75,11.97 12.97,12.75 12,12.75 11.03,12.75 10.25,11.97 10.25,11 10.25,10.03 11.03,9.25 12,9.25 Z"/>
 <path style="fill:#dfdfdf" d="M 4,1 3.25,4 H 12.75 L 12,1 8,1.5 Z M 3,5 0,7 H 16 L 13,5 Z"/>
</svg>
